X:1
T:Accept Him Today
T:Accept Him Today
T:Melvin Joyner Hill
T:Howard G. Hastings, 1906
T:Public Domain Courtesy of the Cyber Hymnal™
T:Public Domain Courtesy of the Cyber Hymnal™
C:Melvin Joyner Hill
Z:Public Domain
Z:Courtesy of the Cyber Hymnal™
%%score ( 1 2 ) ( 3 4 )
L:1/8
Q:1/4=80
M:6/8
K:Ab
V:1 treble 
V:2 treble 
V:3 bass 
V:4 bass 
V:1
 [CE] | [CE]>[=B,=D][CE] [FA][EG][_DF] | [CE][DF][CE] [A,C]2 [CE] | %3
w: 1.~O|bro- ther, the mil- lions are|dy- ing in sin, They|
w: 2.~No|more in the wild- er- ness,|sad and a- fraid, Thy|
w: 3.~Come,|en- ter the bat- tle, will|full ar- mor on, With|
 [B,E]>[G,B,][G,B,] [G,B,][DF][CE] | [A,C]3- [A,C]2 [CE] | [CE]>[=B,=D][CE] [FA][EG][_DF] | %6
w: wan- der in dark- ness and|night; * O|heed thou God’s mes- sage, His|
w: wea- ry ex- ist- ence pro-|long; * But|cross o- ver Jor- dan, thy|
w: vic- tory as- sured o’er the|foe; * The|power of the Spir- it, a-|
 [CE][DF][A,C] [CE]2 [CE] | [B,E]>[B,=D][B,E] [B,F][B,G][B,F] | [B,E]3- [B,E]2 ||"^Refrain" [DE] | %10
w: full- ness re- ceive, And|car- ry thy bro- ther the|light. *||
w: rich- es pos- sess, And|sigh- ing shall turn in- to|song. *|Ac-|
w: bid- ing with- in, Gives|vic- tory wher- ev- er you|go. *||
 c3- [Ac][GB][Ac] | d3- [Bd]2 E | d3- [Bd][Ac][Bd] | e3- e2 [Ee] | [F=d]>[Ac][GB] [=DA][DF][DB] | %15
w: |||||
w: cept Him to- day;|* no long-|er de- lay, The|* * Com-|fort- er glad- ly re- ceive;|
w: |||||
 [D-B]3 !fermata![DE]2 E | c2- [Ac] [GB][Ac] x | d3- [Bd]2 E | d3- [Bd][Ac][Bd] | e3- [Ee]2 [Ec] | %20
w: |||||
w: He * waits|for thy call; give|* o- ver|thy all, ’Tis on-|* * ly|
w: |||||
 [Ee]4 [Ed][Ec] | (B2 c !fermata![Fd]2) !fermata![Af] | [Ae]>[Gd][Ec] [EB][Ec][EB] | %23
w: |||
w: * to ask,|’Tis * * on-|ly to ask and be- lieve.|
w: |||
 [EA]3- [EA]2 |] %24
w: |
w: |
w: |
V:2
 x | x6 | x6 | x6 | x6 | x6 | x6 | x6 | x5 || x | E F G x3 | (EGA x E) x | E G A x3 | (cAF E) x2 | %14
 x6 | x5 E | E F G x3 | (EGA x E) x | E G A x3 | cAF x3 | x6 | F3- x3 | x6 | x5 |] %24
V:3
 C | C>=B,C FED | CDC A,2 C | B,>G,G, G,DC | [A,,A,]3- [A,,A,]2 C | C>=B,C FED | CDA, C2 C | %7
w: ~|~ ~ ~ ~ ~ ~|~ ~ ~ ~ ~|~ ~ ~ ~ ~ ~|~ * ~|~ ~ ~ ~ ~ ~|~ ~ ~ ~ ~|
 B,>B,B, B,B,B, | [E,G,B,]3- [E,G,B,]2 || [E,D] | [A,,C][A,,A,][A,,E,] [A,,E,]2 [A,,E,] | %11
w: ~ ~ ~ ~ ~ ~|~ *|Ac-|cept Him to- day, No|
 [E,B,][E,B,][E,A,] [E,G,]2 [E,G,] | [E,B,][E,B,][E,A,] (G,A,)[E,G,] | A,[A,C][A,D] [A,C][A,C] x | %14
w: long- er de- lay, Ac-|cept Him to- day, * No|long- er de- lay, ~|
 [B,,B,]>[B,,B,][B,,B,] [B,,F,][B,,A,][B,,A,] | [E,-G,]3 !fermata![E,B,]2 [E,D] | %16
w: ~ ~ ~ ~ ~ ~|~ * ~|
 [A,,C][A,,A,][A,,E,] [A,,E,]2 [A,,E,] | [E,B,][E,B,][E,A,] [E,G,]2 [E,G,] | %18
w: waits for thy call, Give|o- ver thy all, He|
 [E,B,][E,B,][E,A,] [E,G,]2 [E,G,] | A,[A,C][A,D] [A,C]2 [A,C] | [A,C][A,C][A,C] ([A,C][G,B,])A, | %21
w: waits for thy call, Give|o- ver thy all, ’Tis|on- ly to ask, * *|
 [D,D]2 [C,=A,] !fermata![B,,B,]2 !fermata![D,_A,] | [E,C]>[E,B,][E,A,] [E,G,][E,A,][E,D] | %23
w: ||
 [A,C]3- [A,C]2 |] %24
w: |
V:4
 x | A,,3 [A,,A,]3 | A,,3 [A,,E,]3 | E,,3 E,3 | x6 | A,,3 [A,,A,]3 | A,,3 [A,,E,]3 | %7
 B,,2 [B,,A,]3 x | x5 || x | x6 | x6 | x3 E,2 x | A, x5 | x6 | x6 | x6 | x6 | x6 | A, x5 | x5 A, | %21
 x6 | x6 | x5 |] %24

